X:17
T:Palatine Lass. JJo.017, The
B:J.Johnson Choice Collection Vol 8 1758
Z:vmp.Simon Wilson 2013 www.village-music-project.org.uk
Z:Dance added by John Chambers 2017
M:C|
L:1/8
%Q:1/2=90
K:D
|: f/g/ |\
afdfe2cA | ddfa eeAf/g/ |\
afdfe2cA | ddgfe3 :|
|: e/d/ |\
ceAa gfg2 | aAaA ag/f/ ef/g/ |\
aAa2gGg2 | fe/d/ Acd2 :|
%%begintext align
%% First Cu set to the 2d Wo, the Man cast off
%% the Wo. foot it down the Middle .| set
%% to the 2d Man the Wo. cast up. the Man
%% foot it up the Middle to the top :| Right hands
%% across :||. Cross over and turn :||: Lead thro' the
%% Bottom and cast up .| Right hands across at
%% Bottom :| Lead thro' the top and cast off :||.
%% Right hands and Left :||:
%%endtext
